X: 119
T: Missa Puer natus est nobis / Credo
N: Derived from Rue1025c-Missa_Puer_natus_est_nobis-Credo.krn
C: Pierre de la Rue
%%abc-version 2.0
%%abcx-abcm2ps-target-version 5.9.1 (29 Sep 2008)
%%abc-creator hum2abc beta
%%abcx-conversion-date 2019/02/17 08:01:14
%%abc-edited-by Jesse Rodin
%%abc-edited-by Chris Gage 05-11-2013
%%abcx-initial-encoding-date 2013/08/01/
%%humdrum-veritas 3236875810
%%humdrum-veritas-data 2504571151
%%linebreak <none>
%%barnumbers 0
L: 1/4
M: 3/1
Q: 1/2=120
%%staves [1 2 3 4]
V: 1 clef=treble
V: 2 clef=treble-8
V: 3 clef=treble-8
V: 4 clef=bass
K: F
[V:1] G4d4d4 | 
[V:2] G8d4 | 
[V:3] z12 | 
[V:4] z12 | 
[V:1] z4d4c2d2- | 
[V:2] d8z4 | 
[V:3] z12 | 
[V:4] z12 | 
[V:1] d2cBA2B2G2c2 | 
[V:2] g4f2g4fe | 
[V:3] z12 | 
[V:4] z12 | 
[V:1] B2c3BA2G2A2 | 
[V:2] d2e2c2f2e2f2- | 
[V:3] z12 | 
[V:4] z12 | 
[V:1] F3DE2F2D2d2 | 
[V:2] fed2c2d2B3G | 
[V:3] z12 | 
[V:4] z12 | 
[V:1] c2d3cB2A2B2- | 
[V:2] A2B2G2d2c2d2- | 
[V:3] z12 | 
[V:4] z12 | 
[V:1] BAG2F2G4^F2 | 
[V:2] dcB2A2G2A4 | 
[V:3] z12 | 
[V:4] z12 | 
[V:1] G8z4 | 
[V:2] G4z2d2f2f2 | 
[V:3] z12 | 
[V:4] z2G,2B,2B,2A,2D2- | 
[V:1] z12 | 
[V:2] e4d2g2f2e2- | 
[V:3] z12 | 
[V:4] D2C2B,3G,A,2G,2 | 
[V:1] z12 | 
[V:2] e2dcd2c2f4 | 
[V:3] z12 | 
[V:4] C4B,2A,4G,F, | 
[V:1] z12 | 
[V:2] e2d4g4^f2 | 
[V:3] z12 | 
[V:4] G,2F,2G,2B,2A,4 | 
[V:1] z12 | 
[V:2] g2d2_e2d3cc2- | 
[V:3] G12- | 
[V:4] G,4z2G,2E,2C,2 | 
[V:1] z2d2_e2d3cc2- | 
[V:2] c2B2c2d2_e3c | 
[V:3] G12 | 
[V:4] G,4C,2B,,2C,4 | 
[V:1] c2=B2c4c2c2 | 
[V:2] d4c8 | 
[V:3] G12 | 
[V:4] G,4C,8 | 
[V:1] f4f2d4cB | 
[V:2] z2a2b2a3gg2- | 
[V:3] d8d4- | 
[V:4] z12 | 
[V:1] A4G4z2G2 | 
[V:2] g2^f2g4z4 | 
[V:3] d4e8- | 
[V:4] z4C8- | 
[V:1] A2G2c4B3A | 
[V:2] z12 | 
[V:3] e8d4- | 
[V:4] C8G,4 | 
[V:1] G2F2G2A2B4 | 
[V:2] z12 | 
[V:3] d12 | 
[V:4] B,3A,G,2F,2G,2B,2 | 
[V:1] A8z4 | 
[V:2] z2f2f3ga2a2- | 
[V:3] c12- | 
[V:4] F,4F,8 | 
[V:1] z2A2A3Bc2c2- | 
[V:2] a2gfe2f2e2a2- | 
[V:3] c12 | 
[V:4] z4z2A,2A,3B, | 
[V:1] c2BAG2A2B2F2 | 
[V:2] a2gfe2f2g2c2 | 
[V:3] z12 | 
[V:4] C2C4B,A,G,2A,2 | 
[V:1] B2c4B4A2 | 
[V:2] d2c2d2B2c4 | 
[V:3] z12 | 
[V:4] B,2F,2B,4F,4 | 
[V:1] B12 | 
[V:2] B8z2F2 | 
[V:3] d12 | 
[V:4] B,,8B,,4 | 
[V:1] z12 | 
[V:2] G2B2B2A2G4 | 
[V:3] d12 | 
[V:4] z4z2F,2G,2B,2 | 
[V:1] z2F2G2B2B3A | 
[V:2] z4B4B2B2- | 
[V:3] c4_e4d4- | 
[V:4] A,2A,2G,8- | 
[V:1] G2B2c2A3GA2 | 
[V:2] B2cd_e2c3BA2 | 
[V:3] d4c4z2f2 | 
[V:4] G,4C,4z4 | 
[V:1] B2G3FG2A2B2- | 
[V:2] G2c3dc2F2d2- | 
[V:3] g2e3de2f2B2- | 
[V:4] z4z2C,2F,2G,2- | 
[V:1] B2B2A2G4^F2 | 
[V:2] d2_e4c2d4 | 
[V:3] BAB2cBAGA4 | 
[V:4] G,F,G,2C,2_E,2D,4 | 
[V:1] G4G2G2E3D | 
[V:2] z12 | 
[V:3] G12 | 
[V:4] z2G,2G,2E,3D,C,2 | 
[V:1] C2F3ED2G3F | 
[V:2] z4z4z2g2 | 
[V:3] z12 | 
[V:4] F,3E,D,2G,3F,E,D, | 
[V:1] EDC2c3BA2d2- | 
[V:2] g2e3dc2f3e | 
[V:3] z12 | 
[V:4] C,8z4 | 
[V:1] dcBAG4z2c2 | 
[V:2] d2g3fedc4 | 
[V:3] z12 | 
[V:4] z4z2C2C3B, | 
[V:1] c3BAGB3AG2- | 
[V:2] z12 | 
[V:3] z12 | 
[V:4] A,2D3CB,A,G,4 | 
[V:1] G2F2G2E2D4 | 
[V:2] z2c2B2c4=B2 | 
[V:3] z12 | 
[V:4] A,4G,8 | 
[V:1] C8z4 | 
[V:2] c6BAG4 | 
[V:3] G8G4 | 
[V:4] C,8C,4 | 
[V:1] F4F2F2D4 | 
[V:2] F4B8 | 
[V:3] d8d4 | 
[V:4] D,4B,,8 | 
[V:1] G4C4z2G2 | 
[V:2] G12 | 
[V:3] _e8_e4 | 
[V:4] C,8C,4 | 
[V:1] F2G2A2B2c3B | 
[V:2] z12 | 
[V:3] d8c4- | 
[V:4] z2G,2F,2G,2A,2B,2 | 
[V:1] G4B4B2B2 | 
[V:2] g8g4 | 
[V:3] c4d8 | 
[V:4] C2C2G,2G,4G,2 | 
[V:1] A2B3Ad4^c2 | 
[V:2] f2d4a3ge2 | 
[V:3] f2g4f2e4 | 
[V:4] D,2G,3F,D,2A,4 | 
[V:1] d8z4 | 
[V:2] f4f2d4cB | 
[V:3] d12 | 
[V:4] D,12 | 
[V:1] z12 | 
[V:2] A2G2d3cd2e2- | 
[V:3] z12 | 
[V:4] z2G,4F,E,D,2C,2 | 
[V:1] z12 | 
[V:2] e2d2g3fg2a2- | 
[V:3] z12 | 
[V:4] G,3F,G,2A,2G,2C2- | 
[V:1] z12 | 
[V:2] ag/f/e2d2g4^f2 | 
[V:3] z12 | 
[V:4] CB,C2D2B,2A,4 | 
[V:1] B4B2B2A2d2- | 
[V:2] g8z4 | 
[V:3] z4d4d2d2 | 
[V:4] G,8z4 | 
[V:1] d2c2B2A3GE2 | 
[V:2] z12 | 
[V:3] _e4d4c4 | 
[V:4] z12 | 
[V:1] F2DEFGABc4 | 
[V:2] z12 | 
[V:3] d8ABcd | 
[V:4] z12 | 
[V:1] c2B3AGFA2FG | 
[V:2] z12 | 
[V:3] efg4g2f3e | 
[V:4] z12 | 
[V:1] AFB3AG4^F2 | 
[V:2] z12 | 
[V:3] dcd3Bc2A4 | 
[V:4] z12 | 
[V:1] G12 | 
[V:2] z4g4g2g2 | 
[V:3] G8z4 | 
[V:4] z4z4G,4 | 
[V:1] z4z4d4 | 
[V:2] g2g2d4z2d2 | 
[V:3] d12- | 
[V:4] G,2G,2G,2G,2D,4- | 
[V:1] d2d2d2d2A4- | 
[V:2] f4f4f4- | 
[V:3] d12 | 
[V:4] D,4z2D,2D,2D,2 | 
[V:1] A4z2A2A2A2 | 
[V:2] f4f3e/d/c3d | 
[V:3] c12- | 
[V:4] F,4F,2F,4E,D, | 
[V:1] A2c4BAG4 | 
[V:2] e4c4c4 | 
[V:3] c8e4 | 
[V:4] C,8C,4 | 
[V:1] F8z2F2 | 
[V:2] A8f4 | 
[V:3] d8d4 | 
[V:4] D,8D,2B,,2 | 
[V:1] B4B4c3_e | 
[V:2] f2f2f8 | 
[V:3] d8c4 | 
[V:4] B,,8F,4 | 
[V:1] d2c4B3AA2 | 
[V:2] z2f4e2f4 | 
[V:3] f3ed2B2c4 | 
[V:4] B,,2F,2G,4F,4 | 
[V:1] B8z4 | 
[V:2] d8d4 | 
[V:3] B8B4 | 
[V:4] B,,8z4 | 
[V:1] B8A4 | 
[V:2] f8f4- | 
[V:3] d8c4- | 
[V:4] B,8F,4- | 
[V:1] A4G2B4A2 | 
[V:2] f4d2e2f4 | 
[V:3] c4z2B2c4 | 
[V:4] F,4G,4z2F,2 | 
[V:1] G2B3AA2G2B2 | 
[V:2] z2e2f4z2d2 | 
[V:3] z2B2c4z2B2 | 
[V:4] G,4z2F,2G,4 | 
[V:1] c2BA2GG4^F2 | 
[V:2] _e4c4d4- | 
[V:3] AGc3BAGA4 | 
[V:4] C,4_E,4D,4 | 
[V:1] G12 ||  
[V:2] d4d8 ||  
[V:3] G12 ||  
[V:4] G,,12 & G,12 ||  
[V:1]  [K:F] [K:clef=treble][M:2/1]B8 | 
[V:2]  [K:F] [K:clef=treble-8][M:2/1]g8 | 
[V:3]  [K:F] [K:clef=treble-8][M:2/1]G8 | 
[V:4]  [K:F] [K:clef=bass][M:2/1]G,8 | 
[V:1] B4B4 | 
[V:2] g4g4 | 
[V:3] d8 | 
[V:4] G,4G,4 | 
[V:1] A8 | 
[V:2] f8 | 
[V:3] d8 | 
[V:4] D,8 | 
[V:1] z4A4 | 
[V:2] z4f4 | 
[V:3] d8 | 
[V:4] z4D,4 | 
[V:1] c4c4 | 
[V:2] g4g4 | 
[V:3] _e8 | 
[V:4] C,4C,4 | 
[V:1] B4B4 | 
[V:2] g4g4 | 
[V:3] d8- | 
[V:4] G,4G,4 | 
[V:1] A4z2A2 | 
[V:2] f4z2f2 | 
[V:3] d8 | 
[V:4] D,4z2D,2 | 
[V:1] A4G2A2- | 
[V:2] f4e2f2- | 
[V:3] c8 | 
[V:4] F,4C,2F,2- | 
[V:1] ABc4BA | 
[V:2] f2f2e3f | 
[V:3] c8- | 
[V:4] F,2E,D,C,3D, | 
[V:1] G2A4G2 | 
[V:2] g2f4e2 | 
[V:3] c8 | 
[V:4] E,2F,4C,2 | 
[V:1] A2GFEDE2 | 
[V:2] f2d4^c2 | 
[V:3] z8 | 
[V:4] F,3G,A,4 | 
[V:1] D4z2D2 | 
[V:2] d2B2A4 | 
[V:3] d8- | 
[V:4] D,8 | 
[V:1] F3GA4 | 
[V:2] z8 | 
[V:3] d8 | 
[V:4] z2D,2F,3G, | 
[V:1] z2F2A3B | 
[V:2] z8 | 
[V:3] c8 | 
[V:4] A,8 | 
[V:1] c6BA | 
[V:2] z8 | 
[V:3] c8 | 
[V:4] z2F,2A,3B, | 
[V:1] G8 | 
[V:2] z2c2e3f | 
[V:3] e8 | 
[V:4] C4C4 | 
[V:1] B4B2A2- | 
[V:2] g4g2f2- | 
[V:3] d8- | 
[V:4] G,4G,2D,2- | 
[V:1] A2B4AG | 
[V:2] fedcB4- | 
[V:3] d8 | 
[V:4] D,2G,4F,E, | 
[V:1] F2GAB2A2- | 
[V:2] B2AGF3G | 
[V:3] d8 | 
[V:4] D,8 | 
[V:1] A2G4^F2 | 
[V:2] A2B2A4 | 
[V:3] d8 | 
[V:4] D,8 | 
[V:1] G8 | 
[V:2] G4z2G2 | 
[V:3] z8 | 
[V:4] G,8- | 
[V:1] z8 | 
[V:2] d8 | 
[V:3] z8 | 
[V:4] G,8- | 
[V:1] z2G2d4- | 
[V:2] _e4d4 | 
[V:3] z8 | 
[V:4] G,8 | 
[V:1] d4_e4 | 
[V:2] B4c4 | 
[V:3] z8 | 
[V:4] z4z2C,2 | 
[V:1] d4B4 | 
[V:2] B2G3AB2 | 
[V:3] z8 | 
[V:4] G,8 | 
[V:1] c4B2G2- | 
[V:2] A2F2z2B2- | 
[V:3] z8 | 
[V:4] A,4G,4 | 
[V:1] GAB2A4 | 
[V:2] B2G2A3B | 
[V:3] z8 | 
[V:4] E,4F,4 | 
[V:1] G4G4 | 
[V:2] c8 | 
[V:3] G8 | 
[V:4] E,2C,3D,E,2 | 
[V:1] A4B4 | 
[V:2] f8 | 
[V:3] d4d4 | 
[V:4] D,8 | 
[V:1] c6BA | 
[V:2] g8 | 
[V:3] _e4_e2c2- | 
[V:4] C,8 | 
[V:1] G2c4=B2 | 
[V:2] g8- | 
[V:3] cd_e2d4 | 
[V:4] C,4G,4 | 
[V:1] c8 | 
[V:2] g8 | 
[V:3] c4z2G2 | 
[V:4] C,8 | 
[V:1] z2G4A2 | 
[V:2] z8 | 
[V:3] A2B2c4 | 
[V:4] z8 | 
[V:1] B2c4d2 | 
[V:2] z8 | 
[V:3] d2e2f3e | 
[V:4] z8 | 
[V:1] e2f4e2 | 
[V:2] z8 | 
[V:3] c2d2A4 | 
[V:4] z8 | 
[V:1] c2d3c/B/A2 | 
[V:2] z8 | 
[V:3] f4f3e | 
[V:4] z8 | 
[V:1] G2A3GG2 | 
[V:2] z8 | 
[V:3] e2f3ee2 | 
[V:4] z8 | 
[V:1] AGc4=B2 | 
[V:2] z8 | 
[V:3] fedcd4 | 
[V:4] z8 | 
[V:1] c8 | 
[V:2] z4g4 | 
[V:3] c8 | 
[V:4] z8 | 
[V:1] z8 | 
[V:2] g2e2e2f2- | 
[V:3] z8 | 
[V:4] C4C2A,2 | 
[V:1] z8 | 
[V:2] fedcd2e2- | 
[V:3] z8 | 
[V:4] A,2B,3A,G,F, | 
[V:1] z8 | 
[V:2] edc4=B2 | 
[V:3] z8 | 
[V:4] G,2C,2D,4 | 
[V:1] G8 | 
[V:2] c8 | 
[V:3] z4c4- | 
[V:4] C,8 | 
[V:1] E4F4 | 
[V:2] z8 | 
[V:3] c4A4- | 
[V:4] z8 | 
[V:1] E4z2G2 | 
[V:2] z8 | 
[V:3] A4B4 | 
[V:4] z8 | 
[V:1] A2c3BAG | 
[V:2] z8 | 
[V:3] A4z2c2 | 
[V:4] z8 | 
[V:1] F3ED4 | 
[V:2] z8 | 
[V:3] d2f3edc | 
[V:4] z8 | 
[V:1] z2G2A2c2- | 
[V:2] z8 | 
[V:3] B2c2A4 | 
[V:4] z8 | 
[V:1] cBAGF3G | 
[V:2] z8 | 
[V:3] z2c2d2f2- | 
[V:4] z8 | 
[V:1] A2B3AGF | 
[V:2] z8 | 
[V:3] fedcB2c2- | 
[V:4] z8 | 
[V:1] EDG4^F2 | 
[V:2] z8 | 
[V:3] cBAGA4 | 
[V:4] z8 | 
[V:1] G8 | 
[V:2] z2G3AB2 | 
[V:3] G8 | 
[V:4] z8 | 
[V:1] z8 | 
[V:2] A2B2G4 | 
[V:3] z8 | 
[V:4] z2G,3A,B,2 | 
[V:1] z2G3AB2 | 
[V:2] F2G4D2- | 
[V:3] z4G4 | 
[V:4] A,2B,2G,3F, | 
[V:1] A2B2G4 | 
[V:2] D2B3AG2 | 
[V:3] d8 | 
[V:4] F,2G,3A,B,2 | 
[V:1] F2G3AB2 | 
[V:2] D2G2Bcde | 
[V:3] d8 | 
[V:4] A,2B,2G,3F, | 
[V:1] A2G2c4 | 
[V:2] f2g4^f2 | 
[V:3] z8 | 
[V:4] D,2G,2A,4 | 
[V:1] B4z2B2- | 
[V:2] g4z2g2- | 
[V:3] G8 | 
[V:4] G,4z2G,2- | 
[V:1] B2B2B2B2 | 
[V:2] g2g2g2g2 | 
[V:3] d8- | 
[V:4] G,2G,2G,2G,2 | 
[V:1] A2B3Ad2- | 
[V:2] f3gaba2- | 
[V:3] d8 | 
[V:4] D,8- | 
[V:1] d2cBA2A2 | 
[V:2] a2g4f2 | 
[V:3] d8 | 
[V:4] D,8 | 
[V:1] G2B3Ac2- | 
[V:2] g2d3c_e2- | 
[V:3] z8 | 
[V:4] z2G,2G,2C,2 | 
[V:1] c2B2B3A | 
[V:2] edcBc4 | 
[V:3] z8 | 
[V:4] G,4F,4 | 
[V:1] B8 | 
[V:2] B8 | 
[V:3] d8- | 
[V:4] B,,8- | 
[V:1] z4B4 | 
[V:2] z4f4 | 
[V:3] d8- | 
[V:4] B,,8 | 
[V:1] B4B4 | 
[V:2] f4f4 | 
[V:3] d8 | 
[V:4] z4D,4 | 
[V:1] c4cBAG | 
[V:2] g8 | 
[V:3] _e8 | 
[V:4] C,4C,4 | 
[V:1] F3GA2B2- | 
[V:2] z2f3ed2 | 
[V:3] d8- | 
[V:4] D,3E,F,2G,2- | 
[V:1] B2A3GG2 | 
[V:2] d2c2B4 | 
[V:3] d8 | 
[V:4] G,2A,2B,3A, | 
[V:1] A4c4 | 
[V:2] A8- | 
[V:3] c8- | 
[V:4] F,2C2C2A,2 | 
[V:1] A2c3BAG | 
[V:2] A8 | 
[V:3] c8 | 
[V:4] C3B,A,G,F,2- | 
[V:1] F3G/A/B2G2 | 
[V:2] z8 | 
[V:3] z8 | 
[V:4] F,2B,2G,2B,2- | 
[V:1] B6A2- | 
[V:2] z8 | 
[V:3] z8 | 
[V:4] B,A,G,4F,2 | 
[V:1] A2G4^F2 | 
[V:2] z8 | 
[V:3] z8 | 
[V:4] G,4A,4 | 
[V:1] G8 | 
[V:2] B6A2 | 
[V:3] d8- | 
[V:4] G,8 | 
[V:1] z8 | 
[V:2] G4F4 | 
[V:3] d8- | 
[V:4] B,6A,2 | 
[V:1] z8 | 
[V:2] G2B4A2 | 
[V:3] d8- | 
[V:4] G,4F,4 | 
[V:1] z8 | 
[V:2] G2B4A2- | 
[V:3] d8 | 
[V:4] G,4D,4 | 
[V:1] z8 | 
[V:2] A2A2G2A2- | 
[V:3] c8- | 
[V:4] F,4E,2F,2- | 
[V:1] z8 | 
[V:2] A2GFG2c2- | 
[V:3] c8 | 
[V:4] F,2E,D,C,2_E,2- | 
[V:1] z8 | 
[V:2] c2B4A2 | 
[V:3] _e8 | 
[V:4] E,2D,2C,4 | 
[V:1] F6F2 | 
[V:2] B8- | 
[V:3] d8 | 
[V:4] B,,8- | 
[V:1] B4B4 | 
[V:2] B8 | 
[V:3] d4d4 | 
[V:4] B,,8 | 
[V:1] A4F2G2- | 
[V:2] z8 | 
[V:3] c2d4B2 | 
[V:4] z8 | 
[V:1] G2A2F2G2- | 
[V:2] z8 | 
[V:3] c4d2B2 | 
[V:4] z8 | 
[V:1] G2A2B2c2- | 
[V:2] z8 | 
[V:3] c4d2_e2- | 
[V:4] z8 | 
[V:1] c2B4A2 | 
[V:2] z8 | 
[V:3] edcBc4 | 
[V:4] z8 | 
[V:1] B4z2B2- | 
[V:2] f6f2 | 
[V:3] B4d4- | 
[V:4] B,6B,2 | 
[V:1] B2B2B2B2 | 
[V:2] f4f4 | 
[V:3] d4d4 | 
[V:4] B,4B,4 | 
[V:1] A8 | 
[V:2] f8 | 
[V:3] c8- | 
[V:4] F,8 | 
[V:1] A4c4- | 
[V:2] f4e4 | 
[V:3] c8 | 
[V:4] F,4A,4- | 
[V:1] c2B2B4- | 
[V:2] c4g4- | 
[V:3] e8 | 
[V:4] A,2G,2G,4- | 
[V:1] B4B4 | 
[V:2] g4g4 | 
[V:3] d8- | 
[V:4] G,4G,4 | 
[V:1] A2B2A2d2 | 
[V:2] f2g2f2f2 | 
[V:3] d8 | 
[V:4] D,2G,2D,2D,2 | 
[V:1] d3cB2A2- | 
[V:2] g4d2f2 | 
[V:3] z2d2d3c | 
[V:4] G,2G,4F,2 | 
[V:1] AGG4^F2 | 
[V:2] _e2d3cBA | 
[V:3] B4A4 | 
[V:4] G,2G,2D,4 | 
[V:1] [M:3/1]G12 | 
[V:2] [M:3/1]B8G4 | 
[V:3] [M:3/1]G12- | 
[V:4] [M:3/1]z4z4G,4 | 
[V:1] z4z4G4 | 
[V:2] d6d2d4 | 
[V:3] G12 | 
[V:4] B,6B,2B,4 | 
[V:1] d6d2d4 | 
[V:2] d8d4 | 
[V:3] z4z4G4 | 
[V:4] G,8F,2E,2 | 
[V:1] z4z4d4 | 
[V:2] f8f4 | 
[V:3] d6d2d4 | 
[V:4] D,6E,2F,4 | 
[V:1] e6d2d4 | 
[V:2] g8f4 | 
[V:3] z12 | 
[V:4] C,8z4 | 
[V:1] c8=B4 | 
[V:2] e4d8 | 
[V:3] z4z4d4 | 
[V:4] z12 | 
[V:1] c8z4 | 
[V:2] c8z4 | 
[V:3] e6d2d4 | 
[V:4] C,8F,4 | 
[V:1] z12 | 
[V:2] z12 | 
[V:3] c8=B4 | 
[V:4] E,4D,8 | 
[V:1] z12 | 
[V:2] z12 | 
[V:3] c12 | 
[V:4] C,12 | 
[V:1] d8d4 | 
[V:2] f4f4g4 | 
[V:3] z12 | 
[V:4] z12 | 
[V:1] c4e6d2 | 
[V:2] a6g2g4 | 
[V:3] z12 | 
[V:4] z12 | 
[V:1] d8^c4 | 
[V:2] f4e4e4 | 
[V:3] z12 | 
[V:4] z12 | 
[V:1] d6c2B2A2 | 
[V:2] d8z4 | 
[V:3] d8d4 | 
[V:4] G,8G,4 | 
[V:1] c6B2B4 | 
[V:2] z12 | 
[V:3] c4e6d2 | 
[V:4] A,6G,2G,4 | 
[V:1] A4G8 | 
[V:2] z4z4G4 | 
[V:3] d8^c4 | 
[V:4] F,4E,8 | 
[V:1] F4A4B2A2 | 
[V:2] A4f4d4 | 
[V:3] d12 | 
[V:4] D,8D,4- | 
[V:1] d8^c4 | 
[V:2] f4e8 | 
[V:3] z12 | 
[V:4] D,4A,8 | 
[V:1] d8z4 | 
[V:2] d8z4 | 
[V:3] z4z4G4 | 
[V:4] B,8B,4 | 
[V:1] d4d4B4 | 
[V:2] g8f4 | 
[V:3] d4d4d4 | 
[V:4] G,6F,E,D,4 | 
[V:1] c4c4d4 | 
[V:2] g8G4- | 
[V:3] e6d2d4 | 
[V:4] C,8B,,4 | 
[V:1] e4f6e2 | 
[V:2] G4F8 | 
[V:3] c8B4 | 
[V:4] C,4D,8 | 
[V:1] e4d6c2 | 
[V:2] G4F4G4- | 
[V:3] c4f6e2 | 
[V:4] C,4D,4B,,4 | 
[V:1] c8=B4 | 
[V:2] G4g8 | 
[V:3] d2c2d8 | 
[V:4] C,4G,8 | 
[V:1] c4z4A4 | 
[V:2] e8z4 | 
[V:3] c12 | 
[V:4] C,8z4 | 
[V:1] B8c4 | 
[V:2] d8c4 | 
[V:3] z4z4A4 | 
[V:4] G,8A,4 | 
[V:1] d8c4 | 
[V:2] B4d4e4 | 
[V:3] B8c4 | 
[V:4] G,4B,4A,4 | 
[V:1] A4B6A2 | 
[V:2] f6e2e4 | 
[V:3] d8c4 | 
[V:4] F,4G,8 | 
[V:1] A4z4d4 | 
[V:2] c4d4B4 | 
[V:3] A4B6A2 | 
[V:4] A,6G,2G,4 | 
[V:1] c4A4B4 | 
[V:2] c6B2B4 | 
[V:3] A4z4d4 | 
[V:4] A,8z4 | 
[V:1] A4c4B4 | 
[V:2] c8d4 | 
[V:3] c4A4B4 | 
[V:4] A,6G,2G,4 | 
[V:1] c4A4B4 | 
[V:2] c8z4 | 
[V:3] A4c4B4 | 
[V:4] A,4F,4G,4 | 
[V:1] G4c4B4 | 
[V:2] g4a4g4- | 
[V:3] c4A4B4 | 
[V:4] E,4F,4G,4 | 
[V:1] d4c2B2A2G2 | 
[V:2] g4e8 | 
[V:3] G4c4B4 | 
[V:4] B,4A,2G,2F,2E,2 | 
[V:1] B4A6G2 | 
[V:2] f6e2d2c2 | 
[V:3] d4c2B2A2G2 | 
[V:4] D,4F,6E,2 | 
[V:1] G8^F4 | 
[V:2] d8d4 | 
[V:3] B4A8 | 
[V:4] G,4D,8 | 
[V:1] G12 |]  
[V:2] B12 & d12 |]  
[V:3] G12 |]  
[V:4] G,12 |]  



